X:1
T:Woody'n You
M:4/4
L:1/8
C:Dizzy Gillespie
Q:1/4=220
%%staves (chords melody)
K:Db
%%text (medium/up)
%%vskip 20
P:A
V:chords
"Gm7b5"x4 x4 | "C7"x4 x4 | "Fm7b5"x4 x4 | "Bb7"x4 x4 |
"Ebm7b5"x4 x4 | "Ab7"x4 x4 | "Db6"x4 x4 | x4 x4 ||
V:melody
z2f2 =g3f | ecz2 z4 | z2e2 f3e | dBz2 z4 |
z2d2 e3d | _cAz2 z2G=E | FAce- e2=dc | _dBz2 z4 ||
P:A
V:chords
"Gm7b5"x4 x4 | "C7"x4 x4 | "Fm7b5"x4 x4 | "Bb7"x4 x4 |
"Ebm7b5"x4 x4 | "Ab7"x4 x4 | "Db6"x4 x4 | x4 x4 ||
V:melody
z2f2 =g3f | ecz2 z4 | z2e2 f3e | dBz2 z4 |
z2d2 e3d | _cAz2 z2G=E | FAce- e2=dc | _dBz2 z4 ||
P:B
V:chords
"Abm7"x4 "Db7"x4 | "Abm7"x4 "Db7"x4 | "Abm7"x4 "Db7"x4 | "Gbmaj7"x4 x4 |
"Bbm7"x4 "Eb7"x4 | "Bbm7"x4 "Eb7"x4 | "Bbm7"x4 "Eb7"x4 | "Ab7"x4 x4 ||
V:melody
B2AG F2GA | B2AG F2GA | BAE_C =D=A zD | B8 |
c2BA =G2AB | c2BA =G2AB | cAFE =E=B zE | c8 ||
P:A
V:chords
"Gm7b5"x4 x4 | "C7"x4 x4 | "Fm7b5"x4 x4 | "Bb7"x4 x4 |
"Ebm7b5"x4 x4 | "Ab7"x4 x4 | "Db6"x4 x4 | x4 x4 |]
V:melody
z2f2 =g3f | ecz2 z4 | z2e2 f3e | dBz2 z4 |
z2d2 e3d | _cAz2 z2G=E | FAce- e2=dc | _dBz2 z4 |]
